X: 195
T: When Mud Gets in Your Eyes
T: Jig, G
C: Bert Murray
L: 1/16
M: 6/8
K: G
B2| d2e2d2 B2d2B2| G2B2G2 D4B,2| D2E2F2 G2A2B2| c6 c4A2| c2e2c2 A2c2A2| F2A2F2 D4D2| D2F2A2 d2c2c2| B6 B4c2| 
d2e2d2 B2d2B2| G2B2G2 D4B,2| G,2B,2D2 G2B2d2| e6 e4f2| g2f2e2 d2c2B2| e2d2c2 B2A2G2| F2E2D2 c2B2A2| G6 G4B2|| 
d2e2d2 B2G2B2| d2B2d2 g2f2e2| d2B2d2 G2B2d2| c6 c4A2| c2e2c2 A2c2A2| F2A2F2 D4D2| D2F2A2 d2c2c2| B6 B4c2| 
d2e2d2 B2G2B2| d2B2d2 g2f2e2| d2B2d2 g2a2g2| e6 e4f2| g2f2e2 d2c2B2| e2d2c2 B2A2G2| A2B2c2 d2e2f2| g6 g4 ||
D: Buddy MacMaster, Glencoe Hall, BM-91
